X: 48
T:Grand Chain, The
M:4/4
L:1/8
R:Reel
K:G
B2 Bc BAGB|d2 d2 BGAB|cdcB AFDF|dedc BGDG|!
B2 Bc BAGB|d2 d2 BGAB|cdcB ABAF|G4:|!
gagf egfe|d2 d2 BGAB|cdcB AFDF|dedc BGef|!
gagf egfe|d2 d2 BGAB|cdcB ABAF|D4:|!
